X:259
T:Jim Coleman's
T:Miss McGuinness
R:reel
H:See also #449
D:Matt Molloy: Stony Steps
Z:id:hn-reel-259
M:C|
K:G
dG~G2 dGBd|efga bage|dG~G2 dG (3Bcd|1 egdB BAAB:|2 egdB BAA2||
a2af ~g3d|(3efg dg egd2|a2af ~g3d|(3efg dB BAA2|
a2af ~g3d|egdg egdg|b2bg ~a3g|edef g3e||
P:variations
|:dG~G2 BGBc|dega bage|dG~G2 BGBd|1 (3efg dB BAAB:|2 (3efg dB BAA2||
eaaf ~g3d|egdg egd2|eaaf ~g3d|(3efg dB BAA2|
eaaf ~g3d|(3efg dg egdg|~b3g a2ag|edef g3e||

